src/pos-icons/upload-lock.svg

<svg height="24" viewBox="0 0 24 24" width="24" xmlns="http://www.w3.org/2000/svg"><path d="m22 22h-5c-.5 0-1-.5-1-1v-4c0-.5.5-1 1-1v-1.5c0-1.4 1.1-2.5 2.5-2.5s2.5 1.1 2.5 2.5v1.5c.5 0 1 .5 1 1v4c0 .5-.5 1-1 1m-8-2h-9v-2h9zm7-4v-1.5c0-.8-.7-1.5-1.5-1.5s-1.5.7-1.5 1.5v1.5zm-6 0h-6v-6h-4l7-7 7 7h-4z"/></svg>

<?xml version="1.0" encoding="UTF-8"?><!DOCTYPE svg PUBLIC "-//W3C//DTD SVG 1.1//EN" "http://www.w3.org/Graphics/SVG/1.1/DTD/svg11.dtd"><svg xmlns="http://www.w3.org/2000/svg" xmlns:xlink="http://www.w3.org/1999/xlink" version="1.1" id="mdi-upload-lock" width="24" height="24" viewBox="0 0 24 24"><path d="M22 22H17C16.5 22 16 21.5 16 21V17C16 16.5 16.5 16 17 16V14.5C17 13.1 18.1 12 19.5 12C20.9 12 22 13.1 22 14.5V16C22.5 16 23 16.5 23 17V21C23 21.5 22.5 22 22 22M14 20H5V18H14V20M21 16V14.5C21 13.7 20.3 13 19.5 13C18.7 13 18 13.7 18 14.5V16H21M15 16H9V10H5L12 3L19 10H15V16Z" /></svg>
